X:1
T:Annan Minnon Peja
O:Norrbotten
Z:Anton Teljebäck
M:4/4
L:1/8
K:Dm
|:(A,2 | D2)DE  F2FG | A2AB  A4 | d^cde  f2 e2 | d4 A2de |
ffee d2AB | =ccBB A2FG | ABAG F2G2 | A4 A2de |
ffee d2AB | =ccBB A2FG | ABAG F2E2 | D4 D4 :|
|: AFDF AFDF | A2d2 c2B2 | ABAG F2G2 | A4 A4 |
AFDF AFDF | A2d2 c2B2 | ABAG F2E2 | D4 D4 :|

